<?xml version="1.0" encoding="UTF-8"?>
<map version="1.10" tiledversion="1.12.2" orientation="orthogonal" renderorder="right-down" width="24" height="16" tilewidth="64" tileheight="64" infinite="0" nextlayerid="4" nextobjectid="56">
 <imagelayer id="1" name="track" offsetx="-6.05484" offsety="-2.59493">
  <image source="track_01.png" width="1536" height="1024"/>
 </imagelayer>
 <objectgroup color="#55ff55" id="3" name="road" offsetx="-18.0548" offsety="-10.5949">
  <object id="54" name="road_outer" type="road_boundary" x="20" y="1058.67">
   <polygon points="1015.47,-196.267 1097.18,-207.025 1173.33,-238.567 1238.72,-288.743 1288.9,-354.133 1320.44,-430.282 1331.2,-512 1325.11,-593.718 1299.57,-672.534 1253.39,-741.924 1180,-804.766 1086.52,-838.975 1017.47,-843.066 525.467,-844.4 450.415,-836.308 364.933,-804.1 297.543,-751.924 244.034,-676.534 215.158,-594.385 209.067,-512 219.825,-430.282 251.367,-354.133 301.543,-288.743 366.933,-238.567 443.082,-207.025 524.8,-196.267"/>
  </object>
  <object id="55" name="road_inner" type="road_boundary" x="-2" y="1020.67">
   <polygon points="1034.8,-252.4 1103.12,-261.148 1167.6,-292.22 1218,-346.134 1254.58,-430.533 1263.65,-493.681 1256.4,-554 1237.65,-605.652 1208.58,-655.467 1174,-686.533 1128.27,-713.78 1071.79,-722.185 1015.47,-729.6 524.8,-729.6 472.481,-718.185 420.667,-691.114 374.934,-659.199 343.686,-602.133 323.282,-554.319 320.533,-504 323.282,-445.014 341.02,-385.2 380.934,-328.134 438.667,-280.22 487.148,-259.815 543.467,-253.067"/>
  </object>
 </objectgroup>
 <objectgroup color="#ffd42a" id="2" name="collisions" offsetx="-17.2995" offsety="-5.18986">
  <object id="2" name="collision-2" type="collision" x="349.867" y="145.067">
   <polygon points="53,1.33333 847.867,0.666667 876.2,-69.5438 897.016,-85.1695 847.867,-357.733 0,-358.4 33.9025,-59.5148"/>
  </object>
  <object id="4" name="collision-4" type="collision" x="1416.53" y="810.667">
   <polygon points="122.667,22.6667 332.8,12.8 332.8,-661.333 30.0633,-704.015 -1.20033,-654.8"/>
  </object>
  <object id="7" name="collision-7" type="collision" x="1335.47" y="832">
   <polygon points="78,44.6667 221.867,-35.8667 114.667,-169.333 -15.333,-91.467"/>
  </object>
  <object id="8" name="collision-8" type="collision" x="1374.93" y="508" width="153.6" height="164.267">
   <ellipse/>
  </object>
  <object id="10" name="collision-10" type="collision" x="1130.67" y="396.8">
   <polygon points="7.19106,-6.36132 30.9324,6.87352 49.3823,-26.548 24.2581,-39.4654"/>
  </object>
  <object id="11" name="collision-11" type="collision" x="1228.8" y="806.4">
   <polygon points="-27.3333,75.3333 34.3997,211.467 178.667,151.466 123.066,15.5997"/>
  </object>
  <object id="12" name="collision-12" type="collision" x="1233.07" y="209.067">
   <polygon points="3.31895,-0.829738 29.5904,17.107 49.5815,-14.1419 26.3524,-30.814"/>
  </object>
  <object id="16" name="collision-16" type="collision" x="725.333" y="443.733">
   <polygon points="43.8489,-40.189 62.6818,-55.9925 83.5296,-56.7309 92.1115,-37.7354 121.229,-48.5265 131.709,-19.6379 130.412,-9.55564 68.2931,12.0214"/>
  </object>
  <object id="17" name="collision-17" type="collision" x="971.722" y="357.322" width="97.333" height="85.333">
   <ellipse/>
  </object>
  <object id="35" x="1353.85" y="248.915">
   <polygon points="0,0 -26.3207,1.658 -34.4034,16.1655 -29.4294,38.1339 -5.18124,36.8904 3.93774,23.212"/>
  </object>
  <object id="36" x="1247.3" y="120.19">
   <polygon points="0,0 21.3333,15 39.3333,23.6667 63,23.3333 78.6667,15.3333 92.3333,4.33333 107.333,-20 117,-33.3333 130.667,-22.6667 147.667,-18 165,-13.6667 167,39.6667 282.667,8.66667 266,-131 -11,-121 -10.6667,-50"/>
  </object>
  <object id="37" x="387.966" y="88.1899">
   <polygon points="0,0 -14.6667,25 -30.3333,39.6667 -47.6667,50.3333 -57,56.3333 -68,58.6667 -83.3333,57 -95,52.6667 -100.667,49.3333 -103,40.3333 -118,27.3333 -139.333,-0.333333 -144.667,-23 -150.667,-32 -165,-33.3333 -168,-98 20.6667,-93.3333"/>
  </object>
  <object id="38" x="29.6329" y="-4.4768">
   <polygon points="0,0 197.667,-8.66667 181.333,240.667 170,390.333 133.667,820.333 129.333,850.333 -40,844.667 -40.6667,-9"/>
  </object>
  <object id="39" x="-1.87081" y="846.555">
   <polygon points="0,0 166.143,-6.39012 227.382,-72.9538 251.345,-96.9168 484.051,162.948 1194.95,158.155 1351.51,158.155 1388.79,-59.6411 1584.22,-37.2757 1571.44,314.713 -11.7152,239.629"/>
  </object>
  <object id="40" x="437.982" y="692.66">
   <polygon points="0,0 -48.4584,-101.709 3.72757,-131.53 22.3654,-136.855 30.3531,-135.79 44.1983,-149.103 102.242,-166.143 152.298,-63.9012"/>
  </object>
  <object id="41" x="592.943" y="686.802">
   <polygon points="0,0 13.3127,-17.5728 29.7552,-4.47779 30.6788,9.27426 15.3874,20.2554 -0.417226,7.32434"/>
  </object>
  <object id="42" x="686.908" y="730.685">
   <polygon points="0,0 9.4863,-90.7385 183.745,-75.4779 174.259,15.8792 170.96,25.9842 0.618672,10.9299"/>
  </object>
  <object id="43" x="645.457" y="587.154">
   <polygon points="0,0 15.2606,-18.7664 36.0892,-5.56804 36.2954,4.3307 21.4473,23.0971 1.64979,9.89874"/>
  </object>
  <object id="44" x="721.76" y="516.006">
   <polygon points="0,0 24.7469,-15.673 82.4895,69.2912 71.7659,79.19 58.5676,85.7891 0.206224,3.71203"/>
  </object>
  <object id="45" x="869.416" y="605.92">
   <polygon points="0,0 16.2917,-18.7664 37.5327,-3.91825 36.2954,5.98049 21.0348,24.5406 -0.206224,11.3423"/>
  </object>
  <object id="46" x="956.443" y="588.185">
   <polygon points="0,0 -32.7896,-89.9136 -27.2215,-94.2443 103.318,-131.777 134.458,-39.8012 3.71203,1.44357"/>
  </object>
  <object id="47" x="927.365" y="706.557">
   <polygon points="0,0 18.9726,-16.7041 36.9141,2.88713 32.7896,14.8481 16.0855,26.3967 -1.44357,8.45518"/>
  </object>
  <object id="48" x="1005.52" y="671.705">
   <polygon points="0,0 -7.83651,-5.77427 9.69252,-32.1709 19.7975,-30.1087 31.7585,-39.1825 44.7506,-51.9684 41.451,-66.1979 45.3692,-73.8281 52.7933,-73.2095 80.0148,-42.4821 118.579,-60.2174 123.116,-55.4742 107.649,-30.3149 97.7501,-21.0348 120.847,8.45518 121.672,14.8481 114.66,20.2099 90.5323,9.07385 70.3223,24.3344 55.4742,16.9104 53.412,5.98049 43.9257,8.04273 44.1319,13.817 34.6456,29.49 24.1282,16.7041 14.2294,19.1788 10.5174,11.961 15.2606,5.56804 5.77427,-3.50581"/>
  </object>
  <object id="49" x="1160.6" y="573.749">
   <polygon points="0,0 -63.9294,-64.9605 -60.0111,-68.8788 4.53692,-4.94937"/>
  </object>
  <object id="50" x="1170.3" y="533.948">
   <polygon points="0,0 -7.83651,-9.69252 -61.4547,-52.5871 -73.6219,-57.9489 -64.9605,-45.3692 -11.5485,-1.64979"/>
  </object>
  <object id="51" x="1182.88" y="466.513">
   <polygon points="0,0 15.673,-16.0855 32.3771,0.618672 29.2838,11.961 13.4045,24.7469 -3.50581,9.69252"/>
  </object>
  <object id="52" x="537.19" y="377.63">
   <polygon points="0,0 -3.71203,-13.1983 101.668,-53.2057 114.66,-27.634 119.816,-25.778 123.734,-8.6614 137.139,23.0971 161.061,55.268 151.987,60.2174 156.936,78.1588 48.0502,126.209 -19.5913,10.5174"/>
  </object>
  <object id="53" x="388.05" y="455.19">
   <polygon points="0,0 54.375,-27.375 69.25,0 70.75,7.625 57.75,13.125 48.25,5.375 38,5.75 28.875,13 26.875,20.375 29.625,28 16,34.25 1.625,11"/>
  </object>
 </objectgroup>
</map>
