<?xml version="1.0" encoding="UTF-8"?>
<map version="1.10" tiledversion="1.12.2" orientation="orthogonal" renderorder="right-down" width="21" height="21" tilewidth="60" tileheight="60" infinite="0" nextlayerid="4" nextobjectid="29">
 <properties>
  <property name="collision_status" value="ready"/>
  <property name="instructions" value="Runtime road contours and solid-object collisions for track_02."/>
 </properties>
 <imagelayer id="1" name="track">
  <image source="track_02.png" width="1254" height="1254"/>
 </imagelayer>
 <objectgroup color="#55ff55" id="2" name="road" visible="0">
  <properties>
   <property name="instructions" value="Runtime contours following the two asphalt edges."/>
  </properties>
  <object id="1" name="road_outer" type="road_boundary" x="119.861" y="173.582">
   <polygon points="197.333,96.6667 244.806,10.6667 296.787,-22.8462 370.847,-42.9605 474.239,-45.7742 537.574,-34.7382 604.853,6.03661 637.44,44.429 668.696,56.4221 733.333,58.6667 785.582,78.9319 838.993,125.268 868.081,190.438 876.685,293.583 886.122,336.672 933.292,401.981 950.877,456.627 951.431,531.062 913.361,603.99 840.651,656.941 821.217,694.848 816.851,791.368 786.822,866.367 695.333,926 630.748,936.373 364,935.333 289.697,916.59 214.623,868.02 129.626,814.717 79.2992,762.097 57.916,721.803 49.9759,671.31 59.7922,602.207 86.5132,545.823 169.799,486.017 274.85,484.17 366.217,543.131 404.217,604.365 414.367,666.58 412.329,733.742 429.008,749.73 474.77,742.41 474.654,703.004 458.322,666.188 457.155,630.116 465.85,570.094 508.626,502.191 602.525,410.3 611.402,354.244 585.064,302.243 541.758,282.604 493.636,285.443 453.595,310.446 392.236,371.026 352.575,408.097 301.72,436.045 250.413,455.209 186.993,460.072 137.286,455.162 95.7651,437.298 57.9223,410.043 38.0325,368.062 28.9958,307.538 52.8669,245.881 102.751,196.105 187.665,162.611"/>
  </object>
  <object id="2" name="road_inner" type="road_boundary" x="622" y="622">
   <polygon points="-261.333,-240 -235.631,-289.178 -229.583,-344.805 -207.752,-383.118 -175.923,-406.6 -103.388,-422.179 -46.6075,-422.948 9.06666,-413.192 41.5874,-391.851 74.5826,-357.067 104.897,-329.658 156.049,-318.343 206.823,-318.648 248,-305.333 282.164,-275.66 298.787,-230.294 303.518,-156.51 317.125,-92.3485 342.282,-45.987 371.22,-0.879333 382.004,43.6168 363.902,99.0907 333.17,128.206 292,157.333 269.687,181.588 244.05,230.487 235.246,351.542 185.225,401.014 131.189,415.726 -7.92458,416.084 -141.63,414.142 -219.592,373.475 -293.971,327.167 -339.333,299.333 -367.327,268.089 -378.887,186.203 -342.719,123.25 -304.816,103.286 -262.877,106.539 -197.446,138.66 -168.199,182.588 -160.629,236.286 -162.174,296.319 -146.156,340.572 -92.0275,374.937 -49.8286,377.47 18.3433,356.111 46.1628,308.903 51.779,253.75 34.2626,204.077 32.6907,149.319 78.2095,87.1751 146.134,21.1688 179.445,-35.1344 181.096,-114.358 141.397,-186.57 73.6865,-231.329 16.0566,-236.188 -47.3178,-223.799 -117.262,-174.945 -190.584,-101.517 -259.751,-68.1126 -334.433,-64.0185 -361.714,-72.5767 -383.034,-88.1526 -399.96,-122.105 -388.32,-167.512 -350.493,-195.199 -302.756,-206.838"/>
  </object>
 </objectgroup>
 <objectgroup color="#ffd42a" id="3" name="collisions">
  <properties>
   <property name="instructions" value="Draw a polygon or ellipse around each solid obstacle. Rectangles are not supported by the runtime loader."/>
  </properties>
  <object id="4" x="442.09" y="318.321">
   <polygon points="0,0 -4.55336,-14.9019 -6.20912,-38.9105 0.827883,-57.1239 12.0043,-59.6076 17.7995,-67.4725 27.3201,-66.2306 33.9432,-57.5379 47.1893,-47.6033 51.3288,-30.6317 52.1566,-2.06971 37.6687,14.488 14.488,10.3485"/>
  </object>
  <object id="5" x="538.952" y="274.857">
   <polygon points="0,0 2.48365,-10.7625 13.2461,-17.7995 21.9389,-23.5947 34.3571,-24.8365 44.7057,-16.9716 52.9845,-2.06971 62.0912,3.72547 68.3004,12.8322 69.5422,27.7341 69.5422,38.9105 55.4682,49.259 39.3244,55.8821 24.4226,47.6033 16.1437,33.5293 9.9346,24.4226 0,16.5577"/>
  </object>
  <object id="6" x="641.609" y="317.907">
   <polygon points="0,0 12.0043,-6.20912 22.7668,-6.62306 30.6317,-10.7625 41.8081,-5.38124 36.0129,0.413942 45.5336,12.8322 56.2961,7.03701 58.7797,11.1764 52.5706,19.4553 52.5706,30.6317 47.6033,31.8735 42.222,23.5947 26.0783,27.7341 18.2134,31.0456 8.69277,21.111 0.413942,14.488 -2.48365,3.31153"/>
  </object>
  <object id="7" x="303.833" y="497.144">
   <polygon points="0,0 -5.79518,-12.4182 -12.8322,-24.4226 -9.10671,-31.4596 -0.413942,-35.185 4.55336,-39.7384 5.38124,-48.0172 16.5577,-51.3288 19.0413,-47.1893 24.4226,-55.0542 26.4923,-52.9845 32.7014,-60.8494 35.599,-66.2306 41.8081,-65.4028 43.8778,-61.2633 56.71,-61.2633 66.2306,-66.2306 79.0628,-68.3004 93.1368,-71.6119 100.174,-76.1652 102.658,-71.1979 100.588,-62.9191 88.1696,-52.1566 74.0955,-46.3615 68.3004,-40.9802 68.3004,-37.6687 77.4071,-28.562 72.8537,-20.2831 65.8167,-18.6274 56.71,-26.9062 46.7754,-17.7995 49.259,-5.79518 38.9105,0 32.2874,-4.9673 34.7711,-10.7625 31.4596,-12.8322 7.45095,0.827883"/>
  </object>
  <object id="8" x="466.098" y="652.786">
   <polygon points="0,0 -7.45095,-12.0043 -7.45095,-22.3528 6.20912,-29.3899 7.86489,-34.3571 72.8537,-69.1282 93.1368,-33.1153 73.6816,-24.4226 20.2831,-2.89759 15.7298,-4.9673"/>
  </object>
  <object id="9" x="540.608" y="674.311">
   <polygon points="0,0 36.8408,-24.4226 55.0542,-33.9432 69.1282,-48.8451 88.1696,-66.6446 97.2763,-50.5009 75.7513,-35.185 72.4398,-36.8408 5.79518,11.1764"/>
  </object>
  <object id="10" x="617.187" y="559.649">
   <polygon points="0,0 17.7995,17.3855 42.636,20.6971 57.9518,3.72547 58.7797,-43.0499 44.2917,-56.71 40.9802,-67.0585 43.4639,-76.9931 49.259,-82.3744 42.636,-87.7556 34.3571,-82.7883 24.4226,-78.6489 23.1807,-69.5422 16.1437,-62.9191 3.72547,-52.5706"/>
  </object>
  <object id="11" x="289.759" y="803.874">
   <polygon points="0,0 3.72547,-26.9062 27.3201,-45.1196 57.5379,-44.7057 80.7186,-22.7668 99.7599,7.86489 98.1041,39.3244 84.4441,43.0499 64.9888,48.8451 28.9759,53.8124 7.45095,25.6644"/>
  </object>
  <object id="12" x="361.371" y="911.913">
   <polygon points="0,0 12.0043,-19.8692 26.4923,-27.7341 43.8778,-17.3855 58.7797,-2.06971 62.5052,30.2177 43.4639,54.6403 5.79518,33.9432"/>
  </object>
  <object id="13" x="752.546" y="890.802">
   <polygon points="0,0 33.9432,-11.1764 71.1979,7.03701 80.7186,38.9105 78.6489,62.0912 58.3658,83.2023 30.6317,89.8253 -5.79518,76.5792 -25.6644,35.599"/>
  </object>
  <object id="14" x="749.648" y="827.055">
   <polygon points="0,0 21.9389,8.27883 33.1153,-12.4182 21.111,-28.148 -1.65577,-27.7341"/>
  </object>
  <object id="15" x="716.119" y="806.772">
   <polygon points="0,0 20.6971,-20.2831 19.4553,-33.9432 4.9673,-53.3985 -9.10671,-54.6403 -22.3528,-45.9475 -33.5293,-35.599 -35.599,-17.3855 -27.7341,-3.72547"/>
  </object>
  <object id="16" x="777.796" y="758.341">
   <polygon points="0,0 -18.2134,-26.0783 -8.69277,-63.747 27.3201,-81.1325 62.5052,-82.3744 86.0998,-60.8494 86.9277,-31.8735 74.5095,-9.52066 24.8365,7.45095"/>
  </object>
  <object id="17" x="904.462" y="719.844">
   <polygon points="0,0 -0.827883,-29.3899 9.9346,-44.7057 30.2177,-51.7427 49.673,-42.222 57.5379,-22.3528 63.3331,-2.89759 49.259,9.9346 42.222,6.62306 28.9759,17.3855 8.69277,15.3158"/>
  </object>
  <object id="18" x="1026.16" y="861.412">
   <polygon points="0,0 -21.9389,-17.3855 -48.8451,-13.6601 -66.2306,9.52066 -69.1282,31.4596 -63.3331,53.3985 -40.9802,65.4028 -51.7427,91.4811 -49.673,114.248 -26.9062,129.15 3.31153,120.871 24.0086,96.0344 36.0129,89.8253 50.9148,66.6446 33.9432,43.8778 50.0869,15.7298 12.8322,-12.8322"/>
  </object>
  <object id="19" x="844.855" y="497.558">
   <polygon points="0,0 41.8081,-19.0413 46.3615,-41.3942 10.7625,-75.7513 9.10671,-84.858 -7.03701,-86.9277 -15.7298,-86.0998 -10.3485,-71.1979 -19.0413,-24.0086 -24.4226,-15.3158"/>
  </object>
  <object id="20" x="337.362" y="-6.20912">
   <polygon points="0,0 36.4269,137.429 53.8124,135.359 52.5706,103.071 306.731,101.416 557.579,101.416 555.51,131.219 567.514,138.256 576.621,134.531 608.08,-0.827883"/>
  </object>
  <object id="21" x="328.67" y="8.27883">
   <polygon points="0,0 23.5947,0.413942 21.9389,-26.4923 -65.8167,-29.3899 -420.565,-23.5947 -338.19,351.85 -300.108,359.301 -246.709,356.404 -168.06,320.391 -134.945,267.406 -69.1282,97.6902 -48.0172,22.3528"/>
  </object>
  <object id="22" x="-6.20912" y="367.994">
   <polygon points="0,0 14.9019,2.48365 15.3158,20.6971 116.732,158.54 125.838,166.818 118.801,183.376 110.108,189.585 108.867,324.944 92.7229,333.637 84.0301,347.297 91.895,364.269 82.3744,382.482 39.3244,372.133 -41.3942,347.711"/>
  </object>
  <object id="23" x="37.6687" y="744.681">
   <polygon points="0,0 5.79518,20.6971 64.1609,57.5379 81.9604,75.3374 75.3374,100.588 37.6687,158.54 22.3528,165.991 -51.3288,128.736 -36.8408,36.8408"/>
  </object>
  <object id="24" x="48.0172" y="914.811">
   <polygon points="0,0 76.1652,2.89759 103.899,13.6601 144.466,48.0172 156.884,83.6162 152.744,153.572 142.81,172.2 145.707,187.516 163.093,192.897 173.028,175.511 196.622,187.516 211.524,177.167 233.877,175.925 235.947,198.692 230.152,206.143 254.574,218.147 254.988,228.91 239.672,239.258 253.332,254.574 261.611,274.029 245.881,279.411 243.398,328.256 225.598,350.608 -84.0301,351.436 -74.5095,21.9389"/>
  </object>
  <object id="25" x="289.759" y="1270.8">
   <polygon points="0,0 -8.27883,-35.599 226.012,-34.3571 211.524,-101.002 302.591,-126.252 440.02,-141.154 656.511,-190.827 749.648,-212.766 786.075,-89.8253 798.907,-36.8408 818.776,-37.6687 831.609,8.27883"/>
  </object>
  <object id="26" x="365.51" y="1167.73">
   <polygon points="0,0 4.13942,-3.72547 24.8365,4.55336 28.148,16.9716 56.2961,8.27883 58.7797,-2.89759 68.7143,-11.1764 70.784,-31.4596 60.8494,-36.8408 52.5706,-37.2547 39.3244,-45.9475 14.488,-56.2961 3.31153,-63.747 -7.86489,-55.8821 -11.1764,-45.9475 -4.13942,-34.7711 -19.4553,-27.7341 -9.10671,0"/>
  </object>
  <object id="27" x="1108.12" y="1245.96">
   <polygon points="0,0 8.27883,-20.2831 16.5577,-27.7341 6.62306,-146.535 -2.89759,-150.261 -3.72547,-160.609 39.3244,-232.635 26.4923,-239.258 6.62306,-232.635 -1.24182,-244.226 4.55336,-269.89 0.827883,-279.824 -7.03701,-292.657 -3.72547,-305.489 0.413942,-314.596 -3.31153,-324.116 -5.79518,-340.26 -2.06971,-351.436 29.3899,-393.658 41.8081,-406.491 30.6317,-430.499 12.4182,-428.016 4.13942,-420.565 -9.10671,-421.806 -11.5904,-435.88 -13.2461,-507.492 -31.8735,-705.356 -51.7427,-912.741 -58.3658,-914.811 -61.2633,-930.955 -28.9759,-1031.96 -32.2874,-1064.66 -26.4923,-1081.63 161.437,-1098.6 177.167,38.4966"/>
  </object>
  <object id="28" x="945.029" y="19.8692">
   <polygon points="0,0 21.9389,0.827883 20.2831,68.3004 31.4596,103.485 48.4312,129.978 89.8253,148.191 124.596,157.712 199.934,135.773 283.136,49.259 259.955,-58.7797 -13.2461,-31.4596"/>
  </object>
 </objectgroup>
</map>
